X:1
T:Dr stod en flicka (SvL Skne nr. 1278)
C:Ola Olsson Feuer
R:Vals
Z:Patrik Mnsson, 4/7 2008
O:Lvestad,Skne
S:Omtyckta Sknska Allspelsltar
M:3/4
L:1/8
K:G
Q:1/4=120
|: G>(B d2) dd | e>(f g)(f e)d | e>e (d2 d)>B | c>c [B4D4] :||:[GG,]>B [dD]>e d>c |
A>B c2 (B>A) | [GG,]>B [dD]>e d>c | A>B c2 (B>A) | G>B d2 e>(c | A)>F G4:|
